logos/music.svg

<svg id="et0xof0d3mtj1" xmlns="http://www.w3.org/2000/svg" xmlns:xlink="http://www.w3.org/1999/xlink" viewBox="0 0 769 769" shape-rendering="geometricPrecision" text-rendering="geometricPrecision">
    <style>
        <![CDATA[#et0xof0d3mtj1{pointer-events: all} #et0xof0d3mtj1:hover * {animation-play-state: running !important}#et0xof0d3mtj3_to {animation: et0xof0d3mtj3_to__to 15000ms linear infinite normal forwards}@keyframes et0xof0d3mtj3_to__to { 0% {transform: translate(384.500000px,381.686597px)} 53.333333% {transform: translate(384.499988px,381.686597px)} 80% {transform: translate(-391.450012px,381.686597px)} 100% {transform: translate(-391.450012px,381.686597px)} }
		
#et0xof0d3mtj3 {animation: et0xof0d3mtj3_c_o 15000ms linear infinite normal forwards}@keyframes et0xof0d3mtj3_c_o { 0% {opacity: 0} 3.333333% {opacity: 1} 53.333333% {opacity: 1} 80% {opacity: 0} 100% {opacity: 0} }#et0xof0d3mtj9_to {animation: et0xof0d3mtj9_to__to 15000ms linear infinite normal forwards}@keyframes et0xof0d3mtj9_to__to { 0% {transform: translate(1184.185608px,170.944336px)} 3.333333% {transform: translate(1184.185608px,170.944336px)} 53.333333% {transform: translate(-375.814392px,170.944336px)} 100% {transform: translate(-375.814392px,170.944336px)} }#et0xof0d3mtj12_to {animation: et0xof0d3mtj12_to__to 15000ms linear infinite normal forwards}@keyframes et0xof0d3mtj12_to__to { 0% {transform: translate(1484.185672px,240.944358px)} 3.333333% {transform: translate(1484.185672px,240.944358px)} 53.333333% {transform: translate(-85.814328px,240.944358px)} 100% {transform: translate(-85.814328px,240.944358px)} }#et0xof0d3mtj13_to {animation: et0xof0d3mtj13_to__to 15000ms linear infinite normal forwards}@keyframes et0xof0d3mtj13_to__to { 0% {transform: translate(355.236704px,413.795165px)} 3.333333% {transform: translate(355.236704px,413.795165px)} 53.333333% {transform: translate(-1204.763296px,413.795165px)} 100% {transform: translate(-1204.763296px,413.795165px)} }#et0xof0d3mtj14_to {animation: et0xof0d3mtj14_to__to 15000ms linear infinite normal forwards}@keyframes et0xof0d3mtj14_to__to { 0% {transform: translate(1915.236704px,413.796324px)} 3.333333% {transform: translate(1915.236704px,413.796324px)} 53.333333% {transform: translate(355.236704px,413.796324px)} 100% {transform: translate(355.236704px,413.796324px)} }#et0xof0d3mtj15_to {animation: et0xof0d3mtj15_to__to 15000ms linear infinite normal forwards}@keyframes et0xof0d3mtj15_to__to { 0% {transform: translate(927.667693px,294.367107px)} 3.333333% {transform: translate(927.667693px,294.367107px)} 53.333333% {transform: translate(-632.332307px,294.367107px)} 100% {transform: translate(-632.332307px,294.367107px)} }]]>
    </style>
<style type="text/css">
	.st0{fill:url(#SVGID_1_);}
	.st1{fill:#FFFFFF;stroke:#01507B;stroke-width:20;stroke-miterlimit:16;}
	.st2{fill:#DDDDDD;}
	.st3{fill:#01507B;}
</style>
<radialGradient id="SVGID_1_" cx="385.802" cy="384.6929" r="383.1984" gradientUnits="userSpaceOnUse">
	<stop  offset="0" style="stop-color:#FFC43D"/>
	<stop  offset="0.0388" style="stop-color:#FCBA3C"/>
	<stop  offset="0.3236" style="stop-color:#E77538"/>
	<stop  offset="0.5292" style="stop-color:#D94A35"/>
	<stop  offset="0.6335" style="stop-color:#D43934"/>
	<stop  offset="0.6579" style="stop-color:#CE3732"/>
	<stop  offset="0.7731" style="stop-color:#B62F2A"/>
	<stop  offset="0.8803" style="stop-color:#A82A26"/>
	<stop  offset="0.971" style="stop-color:#A32824"/>
</radialGradient>
<path class="st0" d="M769,384.78c0,96.16,0,192.32,0,288.49c0,44.08-33.24,84.37-76.66,92.62c-6.42,1.22-13.05,1.92-19.58,1.92
	c-191.68,0.1-383.36,0.08-575.04,0.08c-46.99,0-88-36.04-94.16-82.8c-0.54-4.13-0.91-8.31-0.91-12.47
	C2.6,480.45,2.6,288.29,2.6,96.13c0-44.09,33.26-84.39,76.66-92.63c6.42-1.22,13.05-1.92,19.58-1.92
	C290.68,1.48,482.52,1.5,674.37,1.5c44.09,0,84.44,33.3,92.63,76.66c1.21,6.42,1.91,13.05,1.92,19.58
	C769.03,193.42,769,289.1,769,384.78z"/>
    <g id="et0xof0d3mtj3_to" transform="translate(384.500000,381.686597)">
        <g id="et0xof0d3mtj3" transform="scale(4,4) translate(-295.991501,-674.114197)" opacity="0">
            <rect
                id="et0xof0d3mtj4"
                width="192.997000"
                height="3.834400"
                rx="0"
                ry="1.208150"
                transform="matrix(1 0 0 1 200.13200000000001 740.55499999999995)"
                fill="#af4541"
                fill-rule="evenodd"
                stroke="#af4541"
                stroke-width="0.133000"
            />
            <rect
                id="et0xof0d3mtj5"
                width="192.997000"
                height="3.834400"
                rx="0"
                ry="1.208150"
                transform="matrix(1 0 0 1 198.85400000000001 705.72699999999998)"
                fill="#b34642"
                fill-rule="evenodd"
                stroke="#b34642"
                stroke-width="0.133000"
            />
            <rect
                id="et0xof0d3mtj6"
                width="192.997000"
                height="3.834400"
                rx="0"
                ry="1.208150"
                transform="matrix(1 0 0 1 199.49299999999999 672.17600000000004)"
                fill="#b94845"
                fill-rule="evenodd"
                stroke="#ba4945"
                stroke-width="0.133000"
            />
            <rect
                id="et0xof0d3mtj7"
                width="192.997000"
                height="3.834400"
                rx="0"
                ry="1.208150"
                transform="matrix(1 0 0 1 199.70699999999999 603.83900000000006)"
                fill="#b24642"
                fill-rule="evenodd"
                stroke="#b34643"
                stroke-width="0.133000"
            />
            <rect
                id="et0xof0d3mtj8"
                width="192.997000"
                height="3.834400"
                rx="0"
                ry="1.208150"
                transform="matrix(1 0 0 1 199.38800000000001 637.07000000000005)"
                fill="#af4541"
                fill-rule="evenodd"
                stroke="#af4541"
                stroke-width="0.133000"
            />
        </g>
    </g>
    <g id="et0xof0d3mtj9_to" transform="translate(1184.185608,170.944336)">
        <g id="et0xof0d3mtj9" transform="scale(4,4) translate(-486.325027,-732.290588)">
            <path
                id="et0xof0d3mtj10"
                d="M486.656390,714.870500C478.906390,716.280500,472.496390,719.920500,468.076390,726.610500C465.906390,729.900500,464.856390,733.550490,465.436390,737.490490C466.306390,743.350490,470.016390,746.970490,475.416390,748.660490C484.586390,751.530490,493.126390,749.840490,500.666390,743.950490C505.836390,739.920490,510.074050,732.683300,505.266240,721.814240C496.304520,714.140500,490.846390,714.110500,486.656390,714.870500Z"
                fill="#ffffff"
                stroke="none"
                stroke-width="1"
            />
            <path
                id="et0xof0d3mtj11"
                d="M486.257060,718.956100C480.505240,720.061270,475.747940,722.914330,472.467550,728.158020C470.857040,730.736750,470.077760,733.597640,470.508220,736.685850C471.153910,741.278970,473.907360,744.116360,477.915070,745.441000C484.720770,747.690530,491.058890,746.365890,496.654850,741.749260C500.491870,738.590510,504.822670,732.917930,501.254460,724.398660C494.603340,718.383920,489.366750,718.360400,486.257060,718.956100Z"
                fill="#aaaaaa"
                stroke="none"
                stroke-width="0.762705"
            />
        </g>
    </g>
    <g id="et0xof0d3mtj12_to" transform="translate(1484.185672,240.944358)">
        <path
            id="et0xof0d3mtj12"
            d="M359.798270,588.723550C352.048270,590.133550,345.638270,593.773550,341.218270,600.463550C339.048270,603.753550,337.998270,607.403540,338.578270,611.343540C339.448270,617.203540,343.158270,620.823540,348.558270,622.513540C357.728270,625.383540,366.268270,623.693540,373.808270,617.803540C378.978270,613.773540,383.215930,606.536350,378.408120,595.667290C369.446400,587.993550,363.988270,587.963550,359.798270,588.723550Z"
            transform="scale(4,4) translate(-359.466904,-606.143637)"
            fill="#ffffff"
            stroke="none"
            stroke-width="1"
        />
    </g>
    <g id="et0xof0d3mtj13_to" transform="translate(355.236704,413.795165)">
        <path
            id="et0xof0d3mtj13"
            d="M243.024180,708.270430C238.844180,706.450430,234.664180,706.420430,230.474180,707.180430C222.724180,708.590430,216.314180,712.230430,211.894180,718.920430C209.724180,722.210430,208.674180,725.860430,209.254180,729.800430C210.124180,735.660430,213.834180,739.280430,219.234180,740.970430C228.404180,743.840430,236.944180,742.150430,244.484180,736.260430C249.654180,732.230430,252.294180,726.910430,252.234180,720.160430C252.094180,705.540430,252.224180,690.920430,252.184180,676.310430C252.174180,673.560430,253.314180,671.580430,255.614180,670.220430C256.394180,669.760430,257.234180,669.370430,258.094180,669.100430C272.744180,664.480430,287.394180,659.890430,302.054180,655.300430C302.764180,655.080430,303.524180,654.910430,304.264180,654.860430C306.194180,654.720430,307.254180,655.650430,307.434180,657.580430C307.464180,657.930430,307.474180,658.290430,307.474180,658.650430C307.484180,670.290430,307.484180,681.930430,307.484180,693.570430C307.484180,693.940430,307.444180,694.320430,307.424180,694.790430C303.084180,692.950430,298.714180,692.660430,294.284180,693.320430C286.374180,694.510430,279.814180,698.050430,275.374180,704.880430C272.614180,709.130430,271.704180,713.770430,273.624180,718.630430C275.514180,723.400430,279.324180,726.160430,284.104180,727.410430C294.184180,730.030430,303.164180,727.700430,310.774180,720.610430C314.774180,716.880430,316.754180,712.250430,316.714180,706.600430C316.584180,686.060430,316.664180,665.530430,316.664180,644.990430C316.664180,640.580430,316.684180,636.170430,316.654180,631.760430C316.624180,627.970430,314.104180,624.770430,310.354180,624.200430C308.614180,623.940430,306.704180,624.160430,304.974180,624.580430C301.894180,625.320430,298.894180,626.380430,295.854180,627.310430C281.994180,631.550430,268.144180,635.800430,254.284180,640.010430C247.654180,642.020430,242.864180,648.960430,242.934180,655.420430C243.124180,672.580430,243.004180,689.740430,243.014180,706.900430C243.024180,707.270430,243.024180,707.670430,243.024180,708.270430Z"
            transform="scale(4,4) translate(-262.905572,-683.212536)"
            fill="#ffffff"
            stroke="none"
            stroke-width="1"
        />
    </g>
    <g id="et0xof0d3mtj14_to" transform="translate(1915.236704,413.796324)">
        <path
            id="et0xof0d3mtj14"
            d="M243.024180,708.270430C238.844180,706.450430,234.664180,706.420430,230.474180,707.180430C222.724180,708.590430,216.314180,712.230430,211.894180,718.920430C209.724180,722.210430,208.674180,725.860430,209.254180,729.800430C210.124180,735.660430,213.834180,739.280430,219.234180,740.970430C228.404180,743.840430,236.944180,742.150430,244.484180,736.260430C249.654180,732.230430,252.294180,726.910430,252.234180,720.160430C252.094180,705.540430,252.224180,690.920430,252.184180,676.310430C252.174180,673.560430,253.314180,671.580430,255.614180,670.220430C256.394180,669.760430,257.234180,669.370430,258.094180,669.100430C272.744180,664.480430,287.394180,659.890430,302.054180,655.300430C302.764180,655.080430,303.524180,654.910430,304.264180,654.860430C306.194180,654.720430,307.254180,655.650430,307.434180,657.580430C307.464180,657.930430,307.474180,658.290430,307.474180,658.650430C307.484180,670.290430,307.484180,681.930430,307.484180,693.570430C307.484180,693.940430,307.444180,694.320430,307.424180,694.790430C303.084180,692.950430,298.714180,692.660430,294.284180,693.320430C286.374180,694.510430,279.814180,698.050430,275.374180,704.880430C272.614180,709.130430,271.704180,713.770430,273.624180,718.630430C275.514180,723.400430,279.324180,726.160430,284.104180,727.410430C294.184180,730.030430,303.164180,727.700430,310.774180,720.610430C314.774180,716.880430,316.754180,712.250430,316.714180,706.600430C316.584180,686.060430,316.664180,665.530430,316.664180,644.990430C316.664180,640.580430,316.684180,636.170430,316.654180,631.760430C316.624180,627.970430,314.104180,624.770430,310.354180,624.200430C308.614180,623.940430,306.704180,624.160430,304.974180,624.580430C301.894180,625.320430,298.894180,626.380430,295.854180,627.310430C281.994180,631.550430,268.144180,635.800430,254.284180,640.010430C247.654180,642.020430,242.864180,648.960430,242.934180,655.420430C243.124180,672.580430,243.004180,689.740430,243.014180,706.900430C243.024180,707.270430,243.024180,707.670430,243.024180,708.270430Z"
            transform="scale(4,4) translate(-262.905572,-683.212536)"
            fill="#ffffff"
            stroke="none"
            stroke-width="1"
        />
    </g>
    <g id="et0xof0d3mtj15_to" transform="translate(927.667693,294.367107)">
        <path
            id="et0xof0d3mtj15"
            d="M359.684410,689.748270C355.504410,687.928270,351.324410,687.898270,347.134410,688.658270C339.384410,690.068270,332.974410,693.708270,328.554410,700.398270C326.384410,703.688270,325.334410,707.338260,325.914410,711.278260C326.784410,717.138260,330.494410,720.758260,335.894410,722.448260C345.064410,725.318260,353.604410,723.628260,361.144410,717.738260C366.314410,713.708260,368.954410,708.388260,368.894410,701.638270C368.754410,687.018270,368.884410,672.398270,368.844410,657.788270C368.834410,655.038270,369.974410,653.058270,372.274410,651.698270C373.054410,651.238270,373.894410,650.848270,374.754410,650.578270C393.238790,641.165290,390.634070,648.397970,386.975480,631.991250C384.275480,617.182180,399.502870,611.846230,370.944410,621.488270C364.314410,623.498270,359.524410,630.438270,359.594410,636.898270C359.784410,654.058270,359.664410,671.218270,359.674410,688.378270C359.684410,688.748270,359.684410,689.148270,359.684410,689.748270Z"
            transform="scale(4,4) translate(-357.673549,-670.222670)"
            fill="#ffffff"
            stroke="none"
            stroke-width="1"
        />
    </g>
</svg>

<svg xmlns="http://www.w3.org/2000/svg" id="music" viewBox="0 0 769 769" width="500" height="500" shape-rendering="geometricPrecision" text-rendering="geometricPrecision" version="1.1">
  <style id="music_sheet">
    @keyframes music_scale_animation__to{0%{transform:translate(384.5px,381.686597px)}53.333333%{transform:translate(384.499988px,381.686597px)}80%,to{transform:translate(-391.450012px,381.686597px)}}@keyframes music_scale_group_c_o{0%,80%,to{opacity:0}3.333333%,53.333333%{opacity:1}}@keyframes music_note1_animation__to{0%,3.333333%{transform:translate(1184.185608px,170.944336px)}53.333333%,to{transform:translate(-375.814392px,170.944336px)}}@keyframes music_note2_animation__to{0%,3.333333%{transform:translate(1484.185672px,240.944358px)}53.333333%,to{transform:translate(-85.814328px,240.944358px)}}@keyframes music_note3_animation__to{0%,3.333333%{transform:translate(355.236704px,413.795165px)}53.333333%,to{transform:translate(-1204.763296px,413.795165px)}}@keyframes music_note4_animation__to{0%,3.333333%{transform:translate(1915.236704px,413.796324px)}53.333333%,to{transform:translate(355.236704px,413.796324px)}}@keyframes music_note5_animation__to{0%,3.333333%{transform:translate(927.667693px,294.367107px)}53.333333%,to{transform:translate(-632.332307px,294.367107px)}}#music_scale_animation{animation:music_scale_animation__to 15000ms linear infinite normal forwards}#music_scale_group{animation:music_scale_group_c_o 15000ms linear infinite normal forwards}#music_note1_animation{animation:music_note1_animation__to 15000ms linear infinite normal forwards}#music_note2_animation{animation:music_note2_animation__to 15000ms linear infinite normal forwards}#music_note3_animation{animation:music_note3_animation__to 15000ms linear infinite normal forwards}#music_note4_animation{animation:music_note4_animation__to 15000ms linear infinite normal forwards}#music_note5_animation{animation:music_note5_animation__to 15000ms linear infinite normal forwards}
  </style>
  <path id="background" d="M392.49 676.01v72.19c0 11.03-8.32 21.11-19.18 23.18-1.61.31-3.27.48-4.9.48-47.97.03-95.93.02-143.9.02-11.76 0-22.02-9.02-23.56-20.72a23.27 23.27 0 01-.23-3.12c-.01-48.09-.01-96.18-.01-144.26 0-11.03 8.32-21.12 19.18-23.18 1.61-.31 3.27-.48 4.9-.48 48.01-.02 96.02-.02 144.02-.02 11.03 0 21.13 8.33 23.18 19.18.3 1.61.48 3.27.48 4.9.03 23.94.02 47.89.02 71.83z" transform="matrix(4 0 0 4 -801.294 -2320.4)" fill="#F3632D" stroke="none" stroke-width="1"/>
  <g id="music_scale_animation" transform="translate(384.5 381.687)">
    <g id="music_scale_group" transform="matrix(4 0 0 4 -1183.966 -2696.457)" opacity="0" fill="#FFF" fill-rule="evenodd" stroke="#FFF" stroke-width=".133">
      <rect id="music_scale_line1" width="192.997" height="3.834" rx="0" ry="1.208" transform="translate(200.132 740.555)"/>
      <rect id="music_scale_line2" width="192.997" height="3.834" rx="0" ry="1.208" transform="translate(198.854 705.727)"/>
      <rect id="music_scale_line3" width="192.997" height="3.834" rx="0" ry="1.208" transform="translate(199.493 672.176)"/>
      <rect id="music_scale_line4" width="192.997" height="3.834" rx="0" ry="1.208" transform="translate(199.707 603.839)"/>
      <rect id="music_scale_line5" width="192.997" height="3.834" rx="0" ry="1.208" transform="translate(199.388 637.07)"/>
    </g>
  </g>
  <g id="music_note1_animation" transform="translate(1184.186 170.944)">
    <g id="music_note1_group" transform="matrix(4 0 0 4 -1945.3 -2929.162)" stroke="none">
      <path id="music_note1_outline" d="M486.656 714.87c-7.75 1.41-14.16 5.05-18.58 11.74-2.17 3.29-3.22 6.94-2.64 10.88.87 5.86 4.58 9.48 9.98 11.17 9.17 2.87 17.71 1.18 25.25-4.71 5.17-4.03 9.408-11.267 4.6-22.136-8.961-7.673-14.42-7.703-18.61-6.943z" fill="#000" stroke-width="1"/>
      <path id="music_note1_filling" d="M486.257 718.956c-5.752 1.105-10.51 3.958-13.79 9.202-1.61 2.579-2.39 5.44-1.959 8.528.646 4.593 3.4 7.43 7.407 8.755 6.806 2.25 13.144.925 18.74-3.692 3.837-3.158 8.168-8.831 4.6-17.35-6.652-6.015-11.888-6.039-14.998-5.443z" fill="#F3632D" stroke-width=".763"/>
    </g>
  </g>
  <g id="music_note2_animation" transform="translate(1484.186 240.944)">
    <path id="music_note2" d="M359.798 588.724c-7.75 1.41-14.16 5.05-18.58 11.74-2.17 3.29-3.22 6.94-2.64 10.88.87 5.86 4.58 9.48 9.98 11.17 9.17 2.87 17.71 1.18 25.25-4.71 5.17-4.03 9.408-11.268 4.6-22.137-8.962-7.673-14.42-7.703-18.61-6.943z" transform="matrix(4 0 0 4 -1437.868 -2424.575)" fill="#000" stroke="none" stroke-width="1"/>
  </g>
  <g id="music_note3_animation" transform="translate(355.237 413.795)">
    <path id="music_note3" d="M243.024 708.27c-4.18-1.82-8.36-1.85-12.55-1.09-7.75 1.41-14.16 5.05-18.58 11.74-2.17 3.29-3.22 6.94-2.64 10.88.87 5.86 4.58 9.48 9.98 11.17 9.17 2.87 17.71 1.18 25.25-4.71 5.17-4.03 7.81-9.35 7.75-16.1-.14-14.62-.01-29.24-.05-43.85-.01-2.75 1.13-4.73 3.43-6.09.78-.46 1.62-.85 2.48-1.12 14.65-4.62 29.3-9.21 43.96-13.8.71-.22 1.47-.39 2.21-.44 1.93-.14 2.99.79 3.17 2.72.03.35.04.71.04 1.07.01 11.64.01 23.28.01 34.92 0 .37-.04.75-.06 1.22-4.34-1.84-8.71-2.13-13.14-1.47-7.91 1.19-14.47 4.73-18.91 11.56-2.76 4.25-3.67 8.89-1.75 13.75 1.89 4.77 5.7 7.53 10.48 8.78 10.08 2.62 19.06.29 26.67-6.8 4-3.73 5.98-8.36 5.94-14.01-.13-20.54-.05-41.07-.05-61.61 0-4.41.02-8.82-.01-13.23-.03-3.79-2.55-6.99-6.3-7.56-1.74-.26-3.65-.04-5.38.38-3.08.74-6.08 1.8-9.12 2.73-13.86 4.24-27.71 8.49-41.57 12.7-6.63 2.01-11.42 8.95-11.35 15.41.19 17.16.07 34.32.08 51.48.01.37.01.77.01 1.37z" transform="matrix(4 0 0 4 -1051.622 -2732.85)" fill="#000" stroke="none" stroke-width="1"/>
  </g>
  <g id="music_note4_animation" transform="translate(1915.237 413.796)">
    <path id="music_note4" d="M243.024 708.27c-4.18-1.82-8.36-1.85-12.55-1.09-7.75 1.41-14.16 5.05-18.58 11.74-2.17 3.29-3.22 6.94-2.64 10.88.87 5.86 4.58 9.48 9.98 11.17 9.17 2.87 17.71 1.18 25.25-4.71 5.17-4.03 7.81-9.35 7.75-16.1-.14-14.62-.01-29.24-.05-43.85-.01-2.75 1.13-4.73 3.43-6.09.78-.46 1.62-.85 2.48-1.12 14.65-4.62 29.3-9.21 43.96-13.8.71-.22 1.47-.39 2.21-.44 1.93-.14 2.99.79 3.17 2.72.03.35.04.71.04 1.07.01 11.64.01 23.28.01 34.92 0 .37-.04.75-.06 1.22-4.34-1.84-8.71-2.13-13.14-1.47-7.91 1.19-14.47 4.73-18.91 11.56-2.76 4.25-3.67 8.89-1.75 13.75 1.89 4.77 5.7 7.53 10.48 8.78 10.08 2.62 19.06.29 26.67-6.8 4-3.73 5.98-8.36 5.94-14.01-.13-20.54-.05-41.07-.05-61.61 0-4.41.02-8.82-.01-13.23-.03-3.79-2.55-6.99-6.3-7.56-1.74-.26-3.65-.04-5.38.38-3.08.74-6.08 1.8-9.12 2.73-13.86 4.24-27.71 8.49-41.57 12.7-6.63 2.01-11.42 8.95-11.35 15.41.19 17.16.07 34.32.08 51.48.01.37.01.77.01 1.37z" transform="matrix(4 0 0 4 -1051.622 -2732.85)" fill="#000" stroke="none" stroke-width="1"/>
  </g>
  <g id="music_note5_animation" transform="translate(927.668 294.367)">
    <path id="music_note5" d="M359.684 689.748c-4.18-1.82-8.36-1.85-12.55-1.09-7.75 1.41-14.16 5.05-18.58 11.74-2.17 3.29-3.22 6.94-2.64 10.88.87 5.86 4.58 9.48 9.98 11.17 9.17 2.87 17.71 1.18 25.25-4.71 5.17-4.03 7.81-9.35 7.75-16.1-.14-14.62-.01-29.24-.05-43.85-.01-2.75 1.13-4.73 3.43-6.09.78-.46 1.62-.85 2.48-1.12 18.485-9.413 15.88-2.18 12.221-18.587-2.7-14.809 12.528-20.145-16.03-10.503-6.63 2.01-11.42 8.95-11.35 15.41.19 17.16.07 34.32.08 51.48.01.37.01.77.01 1.37z" transform="matrix(4 0 0 4 -1430.694 -2680.89)" fill="#000" stroke="none" stroke-width="1"/>
  </g>
</svg>
